modules/hawcons-stroke/icons/icon-92-inbox-download.svg

<?xml version="1.0" encoding="UTF-8" standalone="no"?>
<svg width="32px" height="32px" viewBox="0 0 32 32" version="1.1" xmlns="http://www.w3.org/2000/svg" xmlns:xlink="http://www.w3.org/1999/xlink" xmlns:sketch="http://www.bohemiancoding.com/sketch/ns">
    <!-- Generator: Sketch 3.0.3 (7891) - http://www.bohemiancoding.com/sketch -->
    <title>icon 92 inbox download</title>
    <desc>Created with Sketch.</desc>
    <defs></defs>
    <g id="Page-1" stroke="none" stroke-width="1" fill="none" fill-rule="evenodd" sketch:type="MSPage">
        <g id="icon-92-inbox-download" sketch:type="MSArtboardGroup" fill="#929292">
            <path d="M16,16 L12.75,12.75 L12,13.5 L16.5,18 L21,13.5 L20.25,12.75 L17,16 L17,5 L16,5 L16,16 L16,16 Z M18,11 L23.4000244,11 L27.7750244,18 L21,18 L21,20.0020869 C21,21.1017394 20.1057373,22 19.0026083,22 L13.9973917,22 C12.8958578,22 12,21.1055038 12,20.0020869 L12,18 L5.22497559,18 L5.22497559,18 L9.59997559,11 L15,11 L15,10 L9,10 L4,18 L4,18.5 L4,27 L29,27 L29,18.5 L29,18 L24,10 L18,10 L18,11 L18,11 L18,11 Z M22,19 L28,19 L28,26 L5,26 L5,19 L11,19 L11,20.5 C11,21.8807119 12.1152735,23 13.4960703,23 L19.5039297,23 C20.8824713,23 22,21.8903379 22,20.5 L22,19 L22,19 L22,19 Z" id="inbox-download" sketch:type="MSShapeGroup"></path>
        </g>
    </g>
</svg>

<svg width="32" height="32" viewBox="0 0 32 32" xmlns="http://www.w3.org/2000/svg"><path d="M16 16l-3.25-3.25-.75.75 4.5 4.5 4.5-4.5-.75-.75L17 16V5h-1v11zm2-5h5.4l4.375 7H21v2.002A2 2 0 0 1 19.003 22h-5.006A1.999 1.999 0 0 1 12 20.002V18H5.225L9.6 11H15v-1H9l-5 8v9h25v-9l-5-8h-6v1zm4 8h6v7H5v-7h6v1.5c0 1.38 1.115 2.5 2.496 2.5h6.008A2.492 2.492 0 0 0 22 20.5V19z" fill="#929292" fill-rule="evenodd"/></svg>
